X:152
T: EINSTMALS FUHR ICH AUF DER SEE
N: E0079A
O: Europa, Mitteleuropa, Deutschland, Jueterbog
R: erzaehlendes Volks - Lied, Sage, Liebe
M: 2/4
L: 1/16
K: Bb
F2 | B2F2D2F2 | B2d2c3
c | B2G2F2B2 | cBAGF2
F2 | B2B2c2c2 | d2f2e4 |
d2c2B2dc | B2A2B2

@@@ Tune index: 3802
